dist/svg/u1F640.svg

<?xml version="1.0" encoding="UTF-8"?><svg id="Layer_1" xmlns="http://www.w3.org/2000/svg" viewBox="0 0 40 40"><g><path id="SVGID" d="M26.5289,4.32942c-.60062-.5337-1.53995-.36236-1.9155,.34795l-1.58568,2.99915c-.28092,.53133-.83265,.86372-1.43367,.86372h-3.18831c-.60102,0-1.15275-.33239-1.43367-.86372l-1.5857-2.99919c-.37554-.71029-1.31487-.8816-1.91544-.34789C8.35314,8.87745,2.50004,15.41547,2.50004,20.18928c0,5.89893,9.34409,12.0184,14.37648,14.88639,1.9391,1.1051,4.3079,1.1051,6.24699,0,5.03239-2.86798,14.37648-8.98746,14.37648-14.88639,0-4.77382-5.85315-11.31214-10.97109-15.85985Z" style="fill:#ffb72d;"/><path d="M6.17009,19.96553l-3.38228-1.72407c-.18415,.6733-.2878,1.32606-.2878,1.94782,0,1.04674,.29868,2.10015,.81076,3.14139l2.85932-1.45739c.77918-.39719,.77918-1.51056,0-1.90775Z"/><path d="M37.21231,18.24145l-3.38228,1.72407c-.77929,.39719-.77929,1.51056,0,1.90775l2.8592,1.45739c.5122-1.04124,.81076-2.09465,.81076-3.14139,0-.62176-.10366-1.27453-.28769-1.94782Z"/><path d="M19.50576,21.89355h.9885c.48428,0,.74282,.45261,.42348,.74137l-.49425,.44691c-.22437,.20288-.62258,.20288-.84696,0l-.49425-.44691c-.31934-.28876-.06081-.74137,.42348-.74137Z" style="fill:#ff5e00;"/><g><ellipse cx="14.49145" cy="17.7276" rx="4.24261" ry="3.6154" transform="translate(-7.12341 25.28192) rotate(-70.00001)" style="fill:#fff;"/><ellipse cx="25.50858" cy="17.7276" rx="3.6154" ry="4.24261" transform="translate(-4.52484 9.79354) rotate(-19.99998)" style="fill:#fff;"/></g><rect x="17.35563" y="24.50984" width="5.28877" height="8.60341" rx="2.64438" ry="2.64438" style="fill:#ff6d00;"/><path d="M7.17664,35.69044c-1.18647-.44051-1.49085-1.60406-1.3112-2.68192,.45721-2.74325-.69385-5.41113-1.05514-7.00897-.27444-1.21377,.96304-2.41862,2.96579-1.39968,1.82669,.92937,3.82876,5.10325,4.27329,9.08248,.0871,.77966-.31713,1.55238-1.03432,1.87032-.95554,.42361-2.47175,.64518-3.83842,.13776Z" style="fill:#ffa01d;"/><path d="M32.82339,35.69044c1.18647-.44051,1.49085-1.60406,1.3112-2.68192-.45721-2.74325,.69385-5.41113,1.05514-7.00897,.27444-1.21377-.96304-2.41862-2.96579-1.39968-1.82669,.92937-3.82876,5.10325-4.27329,9.08248-.0871,.77966,.31713,1.55238,1.03432,1.87032,.95554,.42361,2.47175,.64518,3.83842,.13776Z" style="fill:#ffa01d;"/></g><rect width="40" height="40" style="fill:none;"/></svg>

<svg id="Layer_1" data-name="Layer 1" xmlns="http://www.w3.org/2000/svg" viewBox="0 0 40 40"><defs><style>.cls-1{fill:#ffb72d;}.cls-2{fill:#ff5e00;}.cls-3{fill:#fff;}.cls-4{fill:#ff6d00;}.cls-5{fill:#ffa01d;}.cls-6{fill:none;}</style></defs><path id="SVGID" class="cls-1" d="M26.529,4.329a1.238,1.238,0,0,0-1.916.348l-1.585,3a1.622,1.622,0,0,1-1.434.863H18.406a1.622,1.622,0,0,1-1.434-.863l-1.586-3a1.236,1.236,0,0,0-1.915-.348C8.353,8.877,2.5,15.415,2.5,20.189c0,5.9,9.344,12.019,14.377,14.887a6.3,6.3,0,0,0,6.247,0C28.156,32.208,37.5,26.088,37.5,20.189,37.5,15.415,31.647,8.877,26.529,4.329Z"/><path d="M6.17,19.966,2.788,18.241A7.443,7.443,0,0,0,2.5,20.189a7.15,7.15,0,0,0,.811,3.142L6.17,21.873A1.07,1.07,0,0,0,6.17,19.966Z"/><path d="M37.212,18.241,33.83,19.966a1.07,1.07,0,0,0,0,1.907l2.859,1.458a7.15,7.15,0,0,0,.811-3.142A7.443,7.443,0,0,0,37.212,18.241Z"/><path class="cls-2" d="M19.506,21.894h.988c.485,0,.743.452.424.741l-.5.447a.664.664,0,0,1-.846,0l-.5-.447C18.763,22.346,19.021,21.894,19.506,21.894Z"/><ellipse class="cls-3" cx="14.491" cy="17.728" rx="4.243" ry="3.615" transform="translate(-7.123 25.282) rotate(-70)"/><ellipse class="cls-3" cx="25.509" cy="17.728" rx="3.615" ry="4.243" transform="translate(-4.525 9.794) rotate(-20)"/><rect class="cls-4" x="17.356" y="24.51" width="5.289" height="8.603" rx="2.644"/><path class="cls-5" d="M7.177,35.69a2.253,2.253,0,0,1-1.312-2.681C6.323,30.265,5.172,27.6,4.81,26c-.274-1.214.963-2.419,2.966-1.4,1.827.929,3.829,5.1,4.273,9.082a1.817,1.817,0,0,1-1.034,1.871A5.353,5.353,0,0,1,7.177,35.69Z"/><path class="cls-5" d="M32.823,35.69a2.253,2.253,0,0,0,1.312-2.681c-.458-2.744.693-5.412,1.055-7.009.274-1.214-.963-2.419-2.966-1.4-1.827.929-3.829,5.1-4.273,9.082a1.817,1.817,0,0,0,1.034,1.871A5.353,5.353,0,0,0,32.823,35.69Z"/><rect class="cls-6" width="40" height="40"/></svg>
